X: 1
T: the White Rabbit
C: Nan Main
R: reel
Z: 2016 John Chambers <jc:trillian.mit.edu>
B: Iain Boyd, "Katherine's Book", p.6
M: C|
L: 1/8
K: D
A2 |\
"D"d2FA D2FA | "G6"BAGF EDCD |\
"A7"EDCB, A,2B,C | "D"DEFG "A7"^GABc |\
"D"d2fd a2fa |
"G6"bagf edcB |\
"A"ABcd efga | "A7"fedc "D"d2 |]\
a2 |\
"G6"b2eb "D"a2da | "A7"g2cg "D"f2d2 |
"G6"e2ef gfga |gf "A7"e2fg |\
"D"adcd "G"BceB | "F#7"cdec "Bm"d3a |\
"G6"bagf edcB | "A7"ABcA "D"d2 |] 
